X:1
T:Smile
C:Charlie Chaplin
L:1/4
M:C
I:linebreak $
K:Ab
"Ab" A2 B c |"Ab6" B A G F |"Cm" G2 A B |"Fm" A G F E |$"Ab" F2 G A |"Abo" F2 G A |"Bbm" B2 c d |
"F7" =A2 B c |$"Bbm" d2 e f |"Db" e d c B |"Dbm" d2 e _f |"Gb7" e d c B |$"Cm" c2 d c |
"Fm" d c B A |"Bbm" B2 F |"A7" c2 c2 :|$"Ab6" A4 | z4 |]

